icons/1_Primary/Brevo.svg

<svg xmlns="http://www.w3.org/2000/svg" width="1024" height="1024" fill="none">
   <g clip-path="url(#a)">
      <path fill="#71A372" d="M512 1024c282.77 0 512-229.23 512-512S794.77 0 512 0 0 229.23 0 512s229.23 512 512 512Z"/>
      <path fill="#fff" d="M716.98 513.41c0-28.53 18.13-48.6 43.91-48.6 25.78 0 44.2 20.06 44.2 48.6 0 28.54-18.41 47.46-44.2 47.46-25.79 0-43.91-19.78-43.91-47.46Zm-26.92 0c0 42.1 29.46 71.77 70.82 71.77 41.36 0 71.11-29.67 71.11-71.77 0-42.1-29.46-72.89-71.11-72.89s-70.82 30.24-70.82 72.89Zm-137.41-71.2 55.53 141.27h26.07l55.53-141.27h-28.05L621.5 551.27h-.57L580.7 442.21h-28.05ZM444.7 508.32c1.7-26 18.98-43.51 42.5-43.51 20.39 0 35.7 13 37.96 32.5h-47.03c-16.71 0-25.78 1.98-32.57 11.02h-.85l-.01-.01Zm-26.91 4.24c0 42.1 29.75 72.61 70.82 72.61 27.77 0 52.13-14.12 62.61-36.45l-22.66-11.31c-7.93 14.69-23.23 23.45-39.95 23.45-20.12 0-38.25-15.26-38.25-29.95 0-7.62 5.1-11.02 12.46-11.02h89.81v-7.62c0-42.39-27.2-71.77-66.29-71.77s-68.56 30.24-68.56 72.05m-77.06 70.92h25.5v-86.73c0-18.65 11.61-31.93 27.77-31.93 6.8 0 13.88 2.26 17.29 5.36 2.55-6.78 6.52-13.56 12.46-20.34-6.8-5.65-18.41-9.33-29.75-9.33-31.16 0-53.27 23.17-53.27 56.23v86.75-.01Zm-123.24-93.5v-68.95h41.93c14.16 0 23.52 8.19 23.52 20.62 0 14.12-12.18 24.86-37.11 33.06-17 5.36-24.64 9.89-27.48 15.26h-.85l-.01.01Zm0 69.22v-28.82c0-12.72 10.77-25.15 25.78-29.95 13.32-4.52 24.36-9.05 33.71-13.84 12.46 7.35 20.11 20.06 20.11 33.34 0 22.6-21.53 39.27-50.71 39.27h-28.89Zm-25.5 24.29h56.66c43.07 0 75.36-26.84 75.36-62.44 0-19.5-9.91-37.01-27.48-48.32 9.07-9.05 13.32-19.5 13.32-32.21 0-26.27-18.98-43.79-47.59-43.79h-70.27v186.77-.01Z"/>
   </g>
   <defs>
      <clipPath id="a">
         <path fill="#fff" d="M0 0h1024v1024H0z"/>
      </clipPath>
   </defs>
</svg>

<svg width="1024" height="1024" viewBox="0 0 1024 1024" fill="none" xmlns="http://www.w3.org/2000/svg">
<g clip-path="url(#clip0_2_1728)">
<path d="M512 1024C794.77 1024 1024 794.77 1024 512C1024 229.23 794.77 0 512 0C229.23 0 0 229.23 0 512C0 794.77 229.23 1024 512 1024Z" fill="#71A372"/>
<path d="M716.98 513.41C716.98 484.88 735.11 464.81 760.89 464.81C786.67 464.81 805.09 484.87 805.09 513.41C805.09 541.95 786.68 560.87 760.89 560.87C735.1 560.87 716.98 541.09 716.98 513.41ZM690.06 513.41C690.06 555.51 719.52 585.18 760.88 585.18C802.24 585.18 831.99 555.51 831.99 513.41C831.99 471.31 802.53 440.52 760.88 440.52C719.23 440.52 690.06 470.76 690.06 513.41ZM552.65 442.21L608.18 583.48H634.25L689.78 442.21H661.73L621.5 551.27H620.93L580.7 442.21H552.65ZM444.7 508.32C446.4 482.32 463.68 464.81 487.2 464.81C507.59 464.81 522.9 477.81 525.16 497.31H478.13C461.42 497.31 452.35 499.29 445.56 508.33H444.71L444.7 508.32ZM417.79 512.56C417.79 554.66 447.54 585.17 488.61 585.17C516.38 585.17 540.74 571.05 551.22 548.72L528.56 537.41C520.63 552.1 505.33 560.86 488.61 560.86C468.49 560.86 450.36 545.6 450.36 530.91C450.36 523.29 455.46 519.89 462.82 519.89H552.63V512.27C552.63 469.88 525.43 440.5 486.34 440.5C447.25 440.5 417.78 470.74 417.78 512.55M340.72 583.47H366.22V496.74C366.22 478.09 377.83 464.81 393.99 464.81C400.79 464.81 407.87 467.07 411.28 470.17C413.83 463.39 417.8 456.61 423.74 449.83C416.94 444.18 405.33 440.5 393.99 440.5C362.83 440.5 340.72 463.67 340.72 496.73V583.48V583.47ZM217.48 489.97V421.02H259.41C273.57 421.02 282.93 429.21 282.93 441.64C282.93 455.76 270.75 466.5 245.82 474.7C228.82 480.06 221.18 484.59 218.34 489.96H217.49L217.48 489.97ZM217.48 559.19V530.37C217.48 517.65 228.25 505.22 243.26 500.42C256.58 495.9 267.62 491.37 276.97 486.58C289.43 493.93 297.08 506.64 297.08 519.92C297.08 542.52 275.55 559.19 246.37 559.19H217.48ZM191.98 583.48H248.64C291.71 583.48 324 556.64 324 521.04C324 501.54 314.09 484.03 296.52 472.72C305.59 463.67 309.84 453.22 309.84 440.51C309.84 414.24 290.86 396.72 262.25 396.72H191.98V583.49V583.48Z" fill="white"/>
</g>
<defs>
<clipPath id="clip0_2_1728">
<rect width="1024" height="1024" fill="white"/>
</clipPath>
</defs>
</svg>
